assets/images/ic-appletv-dark-filled.svg

<?xml version="1.0" encoding="UTF-8"?>
<svg width="43px" height="44px" viewBox="0 0 43 44" version="1.1" xmlns="http://www.w3.org/2000/svg" xmlns:xlink="http://www.w3.org/1999/xlink">
    <!-- Generator: Sketch 43.2 (39069) - http://www.bohemiancoding.com/sketch -->
    <title>ic_appletv_dark_filled</title>
    <desc>Created with Sketch.</desc>
    <defs></defs>
    <g id="Symbols" stroke="none" stroke-width="1" fill="none" fill-rule="evenodd">
        <g id="ic_appletv_dark_filled" fill="#FFFFFF">
            <g id="Combined-Shape">
                <path d="M22,44 C9.8497355,44 0,34.1502645 0,22 C0,9.8497355 9.8497355,0 22,0 C34.1502645,0 44,9.8497355 44,22 C44,34.1502645 34.1502645,44 22,44 Z M30.0144438,17.1107455 L26.944191,26.895473 L26.8939023,26.895473 L23.7998286,17.1107455 L20.7766883,17.1107455 L25.4318268,29.6566139 L26.6969827,29.6566139 L26.944191,29.6566139 L28.2098762,29.6566139 L33,17.1107455 L30.0144438,17.1107455 Z M13.9808424,19.1616537 C13.9808424,19.1616537 13.9808424,24.4435169 13.9813718,25.4618844 C13.9813718,26.4797271 14.0920068,28.0492729 14.817751,28.8377204 C15.5434952,29.6261679 16.3459958,29.9589746 17.6005646,29.9589746 C18.8551335,29.9589746 19.6888659,29.6566139 19.6888659,29.6566139 L19.6629276,27.4938952 C19.6629276,27.4938952 19.0811676,27.7070174 18.1034509,27.6356267 C17.1257342,27.564236 16.693252,26.5127978 16.693252,25.7269749 L16.693252,19.1616537 L19.6623982,19.1616537 L19.6623982,17.1107455 L16.693252,17.1107455 L16.693252,14 L13.9808424,14.8472398 L13.9808424,17.1107455 L12,17.1107455 L12,19.1616537 L13.9808424,19.1616537 Z"></path>
            </g>
        </g>
    </g>
</svg>

<svg xmlns="http://www.w3.org/2000/svg" width="44" height="44" viewBox="0 0 44 44">
    <path fill="#FFF" fill-rule="nonzero" d="M22 44C9.8 44 0 34.2 0 22S9.8 0 22 0s22 9.8 22 22-9.8 22-22 22zm8-26.9l-3.1 9.8h-.1l-3.1-9.8h-3l4.7 12.5h2.8L33 17.1h-3zm-16 2.1v6.3c0 1 .1 2.6.8 3.4.7.8 1.5 1.1 2.8 1.1 1.3 0 2.1-.3 2.1-.3v-2.2s-.6.2-1.6.1-1.4-1.1-1.4-1.9v-6.6h3V17h-3v-3l-2.7.8v2.3h-2v2.1h2z"/>
</svg>
